!!!COM: Beethoven
!!!OTL: Acht Variationen uber "Une fievre brulante" aus "Richard Coeur de Lion" von A.E.M. Gretry
!!!Variation: Variation 5 a
**function	**harm	**kern	**kern
*	*	*clefG2	*clefG2
*	*	*k[]	*k[]
*M3/4	*M3/4	*M3/4	*M3/4
*C:	*C:	*C:	*C:
4T	.	4e 4g	4r
=161	=161	=161	=161
2T	.	(2e 2g	12r
.	.	.	(12bbL
.	.	.	12cccJ
.	.	.	12dddL
.	.	.	12bb
.	.	.	12cccJ
4T	.	4c) 4e	12dddL
.	.	.	12bb
.	.	.	12cccJ)
=162	=162	=162	=162
2T	.	(2f 2a	12r
.	.	.	(12bbL
.	.	.	12cccJ
.	.	.	12dddL
.	.	.	12bb
.	.	.	12cccJ
4T	.	4e) 4g	12dddL
.	.	.	12bb
.	.	.	12cccJ)
=163	=163	=163	=163
2T	.	(2e 2g	12r
.	.	.	(12bbL
.	.	.	12cccJ
.	.	.	12dddL
.	.	.	12bb
.	.	.	12cccJ
4T	.	4d) 4f	12dddL
.	.	.	12bb
.	.	.	12cccJ)
=164	=164	=164	=164
2T	.	4c 4e	(12dddL
.	.	.	12bb
.	.	.	12cccJ
.	.	4r	12dddL
.	.	.	12bb
.	.	.	12cccJ)
4T	.	4e 4g	4ccc#
=165	=165	=165	=165
*	*	*^	*
2P	.	(4a	2f 2a	2ddd
.	.	4dd	.	.
4P	.	4cc#)	4e 4g	4eee
*	*	*v	*v	*
=166	=166	=166	=166
2.P	.	4dd 4d 4f	(8fffL
.	.	.	8eeeJ)
.	.	4r	(8dddL
.	.	.	8cccJ)
.	.	4r	(8bbL
.	.	.	8aaJ)
*	*	*clefF4	*
=167	=167	=167	=167
*	*	*^	*
2.P	.	(4A	2.F	(8ggL
.	.	.	.	8ffJ)
.	.	4d	.	(8eeL
.	.	.	.	8ddJ)
.	.	4f)	.	(8gg#L
.	.	.	.	8aaJ)
=168	=168	=168	=168	=168
4D	.	(4e	2G	(4cc
4D	.	4d)	.	4b)
*	*	*v	*v	*
*-	*-	*-	*-
!!!EMD: Edited in humdrumR 0.7.0.3 on 2024-01-19
